X: 26
T:Bourre  Ribeyrolle 1 - La sabote d'Aubrac
S:Caf Charbons / Esbelin/Pauvert
M:3/8
L:1/16
K:C
cdedef|g2efg2|gagfef|gagfed|\
cdedef|g2efg2|gagfef|g6:|
|:egf2e2|d4f2|dfe2d2|c4d2|\
e2c4|Bcd2c2|1 Bcdcde|\
f2d2g2:|2 BcdedB|c6||
%%newpage
